X:64
T: Jockie Wed a Owing Go (Jockie would a wooing Go)
S: Blaikie MS
N: transcribed from Lute tablature PS
K:G
M6/4
L:1/4
GBBA2B|d2BA2B|GBBA2B|Bgfe2||f|gfgaga|ffedef|fg2d2B|AB2G3||
 
